Origami/64x64/apps/fontypython.svg

<svg width="64" height="64" version="1" xmlns="http://www.w3.org/2000/svg">
 <rect transform="matrix(0,-1,-1,0,0,0)" x="-61" y="-60" width="56" height="56" rx="2.8" ry="2.8" style="opacity:.2"/>
 <rect transform="matrix(0,-1,-1,0,0,0)" x="-60" y="-60" width="56" height="56" rx="2.8" ry="2.8" style="fill:#6493a6"/>
 <path d="m29.199218 13c-6.2048 0-11.199218 4.99442-11.199218 11.199218v5.601564 5.597656 5.601562 8.898438 2.30078c0 1.5512 1.448798 2.800782 3 2.800782 1.5512 0 3-1.249582 3-2.800782v-11.199218h5.199218 2.800782v-6h-2.667968c-3.047484 0-5.332032-2.284548-5.332032-5.332032v-5.335936c0-3.047484 2.284548-5.332032 5.332032-5.332032h2.667968v-6h-2.800782z" style="opacity:.2"/>
 <path d="m29.199218 12c-6.2048 0-11.199218 4.99442-11.199218 11.199218v5.601564 5.597656 5.601562 8.898438 2.30078c0 1.5512 1.448798 2.800782 3 2.800782 1.5512 0 3-1.249582 3-2.800782v-11.199218h5.199218 2.800782v-6h-2.667968c-3.047484 0-5.332032-2.284548-5.332032-5.332032v-5.335936c0-3.047484 2.284548-5.332032 5.332032-5.332032h2.667968v-6h-2.800782z" style="fill:#3f3f3f"/>
 <path d="m 32,13 0,6 2.667968,0 C 37.715452,19 40,21.284548 40,24.332032 l 0,5.335936 C 40,32.715452 37.715452,35 34.667968,35 L 32,35 l 0,6 2.800782,0 C 41.005582,41 46,36.005582 46,29.800782 l 0,-5.601564 C 46,17.99442 41.005582,13 34.800782,13 Z" style="opacity:.2"/>
 <path d="m 32,12 0,6 2.667968,0 C 37.715452,18 40,20.284548 40,23.332032 l 0,5.335936 C 40,31.715452 37.715452,34 34.667968,34 L 32,34 l 0,6 2.800782,0 C 41.005582,40 46,35.005582 46,28.800782 l 0,-5.601564 C 46,16.99442 41.005582,12 34.800782,12 Z" style="fill:#ffffff"/>
 <path d="M 6.8007812 4 C 5.2495812 4 4 5.2495812 4 6.8007812 L 4 7.8007812 C 4 6.2495813 5.2495812 5 6.8007812 5 L 57.199219 5 C 58.750419 5 60 6.2495812 60 7.8007812 L 60 6.8007812 C 60 5.2495813 58.750419 4 57.199219 4 L 6.8007812 4 z" style="fill:#ffffff;opacity:.2"/>
</svg>

<svg xmlns="http://www.w3.org/2000/svg" width="64" height="64" version="1">
 <rect style="opacity:0.2" width="56" height="56" x="-61" y="-60" rx="2.8" ry="2.8" transform="matrix(0,-1,-1,0,0,0)"/>
 <rect style="fill:#6493a6" width="56" height="56" x="-60" y="-60" rx="2.8" ry="2.8" transform="matrix(0,-1,-1,0,0,0)"/>
 <path style="opacity:0.2" d="M 29.199218,13 C 22.994418,13 18,17.99442 18,24.199218 l 0,5.601564 0,5.597656 L 18,41 l 0,8.898438 0,2.30078 C 18,53.750418 19.448798,55 21,55 c 1.5512,0 3,-1.249582 3,-2.800782 L 24,41 29.199218,41 32,41 32,35 29.332032,35 C 26.284548,35 24,32.715452 24,29.667968 l 0,-5.335936 C 24,21.284548 26.284548,19 29.332032,19 L 32,19 l 0,-6 -2.800782,0 z"/>
 <path style="fill:#3f3f3f" d="M 29.199218,12 C 22.994418,12 18,16.99442 18,23.199218 l 0,5.601564 0,5.597656 L 18,40 l 0,8.898438 0,2.30078 C 18,52.750418 19.448798,54 21,54 c 1.5512,0 3,-1.249582 3,-2.800782 L 24,40 29.199218,40 32,40 32,34 29.332032,34 C 26.284548,34 24,31.715452 24,28.667968 l 0,-5.335936 C 24,20.284548 26.284548,18 29.332032,18 L 32,18 l 0,-6 -2.800782,0 z"/>
 <path style="opacity:0.2" d="m 32,13 0,6 2.667968,0 C 37.715452,19 40,21.284548 40,24.332032 l 0,5.335936 C 40,32.715452 37.715452,35 34.667968,35 L 32,35 l 0,6 2.800782,0 C 41.005582,41 46,36.005582 46,29.800782 l 0,-5.601564 C 46,17.99442 41.005582,13 34.800782,13 Z"/>
 <path style="fill:#ffffff" d="m 32,12 0,6 2.667968,0 C 37.715452,18 40,20.284548 40,23.332032 l 0,5.335936 C 40,31.715452 37.715452,34 34.667968,34 L 32,34 l 0,6 2.800782,0 C 41.005582,40 46,35.005582 46,28.800782 l 0,-5.601564 C 46,16.99442 41.005582,12 34.800782,12 Z"/>
 <path style="opacity:0.2;fill:#ffffff" d="M 6.8007812 4 C 5.2495812 4 4 5.2495812 4 6.8007812 L 4 7.8007812 C 4 6.2495813 5.2495812 5 6.8007812 5 L 57.199219 5 C 58.750419 5 60 6.2495812 60 7.8007812 L 60 6.8007812 C 60 5.2495813 58.750419 4 57.199219 4 L 6.8007812 4 z"/>
</svg>
